X:1
T:1. Pour quoy
T:(Ronde 1)
C:Tielman Susato
S:Tileman Susato: Danserye (1551)
R:Ronde
M:4/2
L:1/2
K:Ddor
DAA>A|GAFD|G>A G/F/E/D/|^C/B,/^CD2::D/E/F/G/AA|cBA2|D/E/F/G/AA|cBA2|
F/E/F/G/AA|F/E/F/G/AA|G/A/_B/A/ G/F/E/D/|^C/B,/D/^C/D2|F/E/F/G/AA|F/E/F/G/AA|G/A/_B/A/ G/F/E/D/|^C/B,/D/^C/D2:|
